svg/300/sharp/animated_images.svg

<svg xmlns="http://www.w3.org/2000/svg" width="48" height="48" viewBox="0 -960 960 960"><path d="M497.308-449.001 692.769-580 497.308-710.999v261.998Zm221.695 239.846h70.38l4.462 36.923L169.77-96.309 96.155-669.075l107.461-11.692v46.383l-55.846 6 61.923 481.845 509.31-62.616ZM269.001-274.54v-591.613h591.613v591.613H269.001Zm45.383-45.383H815.23v-500.846H314.384v500.846ZM209.693-146.539Zm355.307-424Z"/></svg>

<svg xmlns="http://www.w3.org/2000/svg" width="48" height="48" viewBox="0 -960 960 960"><path d="m497.31-449 195.46-131-195.46-131v262ZM719-209.15h70.38l4.46 36.92-624.07 75.92-73.61-572.77 107.46-11.69v46.39l-55.85 6 61.92 481.84L719-209.15Zm-450-65.39v-591.61h591.61v591.61H269Zm45.38-45.38h500.85v-500.85H314.38v500.85ZM209.69-146.54Zm355.31-424Z"/></svg>
